X: 33185
T: Professor & His Cat, The
R: jig
M: 6/8
K: Fmajor
|:"F"CFF AGA|BAB c2c|"C/E"ecc fcc|g3 gfe|"Dm"f3 fec|B2A BAF|"Bb"F2E FEC|"Csus"CCC CFE|
"F"CFF AGA|BAB c2c|"C/E"ecc fcc|g3 gfe|"Dm"f3 fec|B2A BAF|"Bb"F2E FEC|"Csus"CCC C2c||
"F"f3 fec|"Gm"B2A BAF|"Dm"F2E FEC|"C"CCC C2c|"F"f3 fec|"Gm"fcg fec|"Dm"fcg fec|"C"BAF E2c|
"F"f3 fec|"Gm"B2A BAF|"Dm"F2E FEC|"C"CCC C2c|"F"f3 fec|"Gm"fcg fec|"Bb"fcg fec|"Csus"BAF E2F"rall":|"F"F6||

